X:1
T:I always beg - Wilbye
T:#
%%score 1 2 { 3 | 4 }
L:1/8
Q:1/4=120
M:4/4
K:C
V:1 treble nm="Soprano I"
V:2 treble nm="Soprano II"
V:3 treble-8 nm="Tenor I" snm="T"
V:4 treble-8 
V:1
"^I always beg""^John Wilbye\n (1574-1638)""^1st part of a two-part madrigal: 2nd part is \"Thus love commands\"" z4!p! e4- | %1
w: I|
 e4 d2 c2 | B4 ^G4 | A2 A2 (A2 B2- | B2) A4 ^G2 |[M:4/4] A6 A2 | B4 (c3 d) | e4"^cresc." e4 | %8
w: * al- ways|beg, yet|ne- ver am *|* re- liev-|ed, I|al- ways *|beg, yet|
 ^c4 d4 | e6 (e2- | e2 dc) B4 | ^c8 | z2!p! A2 A2 ^G2 | A2 c2 B2 A2 | ^G6 G2 | A4 B4 | ^G4 z4 | %17
w: ne- ver|am re\-|* * * liev-|ed,|I al- ways|beg, I al- ways|beg, I|al- ways|beg,|
 z8 | e8 | ^c4 d4 | e8 | z4"^cresc." ^G4 | A6 A2 | B4 A4- | A4 ^G4 | A2!p! A2 A2 A2 | =c3 c B2 A2 | %27
w: |I|al- ways|beg,|yet|ne- ver|am re\-|* liev-|ed, I grieve, be-|cause my griefs are|
 A2 ^G2 A4 | E4 z4 | z8 | z8 | z4 c4- | c4 B4 | z2"^cresc." c4 d2- | d2 e4 d2- | dc c4 B2 | c8 | %37
w: not be- liev-|ed,|||I|* grieve,|be- cause|* my griefs|* are not be-|liev-|
 c8 | z8 | z8 | z4!f! g4 | g4 ^f4 | g6 =f2 | e4 g4 | f4 e4 | d4 c2 c2 | B4 (B4- | B2 A2) A4- | %48
w: ed.|||I|cry a-|loud in|vain, my|voice out-|stretch- ed, my|voice out\-|* * stretch\-|
 A4 ^G4 | z8 | z8 | z2!f! c4 B2- | B2 A2 ^G4- | G4 z2!mf! e2 | c2 A2 c2 B2 | A2 A2 z2!p! e2 | %56
w: * ed,|||And get|* but this,|* mine|e- cho calls me|wretch- ed! mine|
 c2 A2 c2 B2 | A2 A2 z2!f! e2 | c3 d e2 e2 | e2 e2 z2!p! ^G2 | A2 A2 A2 ^G2 |!pp! A8 | ^G16 |] %63
w: e- cho calls me|wretch- ed, mine|e- cho calls me|wretch- ed, mine|e- cho calls me|wretch-|ed.|
V:2
!p! ^G8 | A4 B4 | ^G4 z4 | z8 | e8 |[M:4/4] ^c4 d4 | e8 | z4"^cresc." ^G4 | A6 A2 | B4 A4- | %10
w: I|al- ways|beg,||I|al- ways|beg,|yet|ne- ver|am re\-|
 A4 ^G4 | A8 | z8 | z2!p! e2 e2 d2 | e4 e4- | e4 d2 c2 | B4"^cresc." ^G4 | A2 A2 B4- | B2 A4 ^G2 | %19
w: * liev-|ed,||I al- ways|beg, I|* al- ways|beg, yet|ne- ver am|* re- liev-|
 A6 A2 | B4 (^c3 d) | e4 e4 | ^c4 d4 | e6 (e2- | e2 d^c) B4 | ^c8 | z2!p! e2 e2 e2 | d2 e2 c3 d | %28
w: ed, I|al- ways *|beg, yet|ne- ver|am re|* * * liev-|ed,|I grieve, be-|cause my griefs are|
 B2 A2 (A2 ^G2) | A2 B2 c2 d2- | d2 c2 B4- | B4 A4- | A4 ^G4 | z2"^cresc." A4 B2- | B2 =G2 G3 G | %35
w: not be- liev\- *|ed, are not be\-|* liev- ed,|* I|* grieve,|be- cause|* my griefs are|
 A2 E2 F4 | G8 | z8 | z4!f! G4 | G6 (AB) | c8 | z8 | z4 G4 | G6 (AB) | c4 G4 | B4 e4 | d4 B4 | %47
w: not be- liev-|ed.||I|cry a\- *|loud,||I|cry a\- *|loud in|van, my|voice out-|
 c8- | c4 B4 | z2 c4 B2- | B2 A2 ^G4 | z2!f! e4 d2- | d2 c2 B4- | B4 z4 | z4 z2 e2 | c2 A2 c2 B2 | %56
w: stretch\-|* ed,|And get|* but this,|and get|* but this,||mine|e- cho calls me|
 A2 A2 z2!p! e2 | c2 A2 c2 B2 | A2 A2 z2!f! e2 | c3 d e2 e2 |!>(! e8- | e8!>)! |!pp! e16 |] %63
w: wretch- ed! mine|e- cho calls me|wretch- ed, mine|e- cho calls me|wretch\-||ed.|
V:3
 z8 | z8 | z4!p! e4- | e4 d4- | d2 c2 B2 e2 |[M:4/4][K:treble-8] f2 e2 d4- | d4 (c4- | c2 BA B4) | %8
w: ||I|* al\-|* ways beg, yet|ne- ver am|* re\-|* * * liev-|
 A8 | z4"^cresc." e4 | e8 | e8 |!p! f4 e2 d2 | ^c4 z4 | e8 | ^c4 d4 | e4"^cresc." e4- | e4 d4- | %18
w: ed,|re-|liev-|ed,|I al- ways|beg,|I|al- ways|beg, yet|* ne\-|
 d2 c2 B2 e2 | f2 e2 d4- | d4 (^c4- | c2 BA) B4 | A8 | z4 e4 | e8 | e8 | z8 | z8 | z2!p! A2 d3 d | %29
w: * ver am re-|liev\- * ed,|* re\-|* * * liev-|ed,|re-|liev-|ed,|||my griefs are|
 c2 B2 A4 | ^G8 | z8 | z8 | z2"^cresc." e4 g2- | g2 g2 g2 d2 | f2 c2 d4 | e4!f! g4 | g4 e4 | %38
w: not be- liev-|ed,|||be- cause|* my griefs are|not be- liev-|ed. I|cry a-|
 g6 f2 | e4 g4 | f4 e4 | d4 c4 | d8 | e6 d2 | c4 e4 | g4 g4 | f4 e4 | e8 | e8 | z2 (e2 f2) g2- | %50
w: loud in|vain, my|voice out-|stretch- ed,|I|cry a-|loud in|vain, my|voice out-|stretch-|ed,|And * get|
 g2 e2 e4 | z2!f! c4 d2- | d2 A2 B4- | B4 z2!mf! E2 | A2 A2 A2 ^G2 | A4 E2!p! B2 | c3 d e2 e2 | %57
w: * but this,|and get|* but this,|* mine|e- cho calls me|wretch- ~ed! mine|e- cho calls me|
 e4 e2!f! B2 | c2 A2 c2 B2 | A4 ^G4 | z2!p! e2 (e3 d) |!pp! (c2 A2 c4) | B16 |] %63
w: wretch- ed, mine|e- cho calls me|wretch- ed,|calls me *|wretch\- * *|ed.|
V:4
!p! e8 | ^c4 d4 | e6 E2 | E4 ^F4 | ^G2 A2 B4 |[M:4/4][K:treble-8] A4 ^F4 | ^G4 A4 | %7
w: I|al- ways|beg, yet|ne- ver|am re- liev-|ed, yet|ne- ver|
 E4"^cresc." e4- | e4 (d4- | d4 c4- | c2 BA B4) | A8 |!p! d4 ^c2 B2 | A4 z4 | z8 | z8 | %16
w: am re\-|* liev\-|||ed,|I al- ways|beg,|||
 z4 z2"^cresc." E2 | E4 ^F4 | ^G2 A2 B4 | A4 ^F4 | ^G4 A4 | E4 e4- | e4 (d4- | d4 ^c4- | %24
w: yet|ne- ver|am re- liev-|ed, yet|ne- ver|am re\-|* liev\-||
 c2 BA B4) | A6!p! A2 | A2 A2 c3 c | B4 z2 e2 | e2 e2 d2 d2 | f2 e2 e2 d2 | e4 e4 | e8 | e8 | %33
w: |ed, I|grieve, be- cause my|griefs, I|grieve, be- cause my|griefs are not be-|liev- ed,|I|grieve,|
 z2"^cresc." c4 B2- | B2 c2 c2 B2 | A2 G2 F4 | E8 |!f! e8 | e4 d4 | e6 d2 | c8 | z4 c4 | c4 B4 | %43
w: be- cause|* my griefs are|not be- liev-|ed.|I|cry a-|loud in|vain,|I|cry a-|
 c6 B2 | A4 c4 | B4 A4- | A4 ^G4 | A8 | z8 | z2 A4 =G2- | G2 A2 E4 | z2!f! e4 g2- | g2 e2 e4- | %53
w: loud in|vain, my|voice out\-|* stretch-|ed,||And get|* but this,|and get|* but this,|
 e4 z2!mf! B2 | c3 d e2 e2 | e4 e2!p! E2 | A2 A2 A2 ^G2 | A4 ^G4 | z4 z2!f! B2 | %59
w: * mine|e- cho calls me|wretch- ed! mine|e- cho calls me|wretch- ed,|mine|
 c2 A2 c2"^dim." B2 | A2 A2 E2 E2 |!pp! e8 | e16 |] %63
w: e- cho calls me|wretch- ed, calls me|wretch-|ed.|

